pk/download-computer.svg

<svg viewBox="0 0 48 48" fill="none" xmlns="http://www.w3.org/2000/svg" height="1em" width="1em">
  <path d="M26 6H9C7.34315 6 6 7.34315 6 9V31C6 32.6569 7.34315 34 9 34H39C40.6569 34 42 32.6569 42 31V25" stroke="black" stroke-width="4" stroke-linecap="round" stroke-linejoin="round"/>
  <path d="M24 34V42" stroke="black" stroke-width="4" stroke-linecap="round" stroke-linejoin="round"/>
  <path d="M14 42L34 42" stroke="black" stroke-width="4" stroke-linecap="round" stroke-linejoin="round"/>
  <path d="M32 13L37 18L42 13" stroke="black" stroke-width="4" stroke-linecap="round" stroke-linejoin="round"/>
  <path d="M37 6L37 18" stroke="black" stroke-width="4" stroke-linecap="round" stroke-linejoin="round"/>
</svg>

<svg viewBox="0 0 48 48" fill="none" xmlns="http://www.w3.org/2000/svg" height="1em" width="1em">
  <path d="M26 6H9a3 3 0 0 0-3 3v22a3 3 0 0 0 3 3h30a3 3 0 0 0 3-3v-6m-18 9v8m-10 0h20m-2-29 5 5 5-5m-5-7v12" stroke="#000" stroke-width="4" stroke-linecap="round" stroke-linejoin="round"/>
</svg>
